svgs/persian_calendar.svg

<svg width="192" height="192" viewBox="0 0 192 192" fill="none" xmlns="http://www.w3.org/2000/svg">
<mask id="path-1-inside-1_1_2" fill="white">
<path d="M176 96C176 140.183 140.183 176 96 176C51.8172 176 16 140.183 16 96C16 51.8172 51.8172 16 96 16C140.183 16 176 51.8172 176 96Z"/>
</mask>
<path d="M92 16V176H100V16H92ZM168 96C168 135.765 135.765 168 96 168V184C144.601 184 184 144.601 184 96H168ZM96 168C56.2355 168 24 135.765 24 96H8C8 144.601 47.3989 184 96 184V168ZM24 96C24 56.2355 56.2355 24 96 24V8C47.3989 8 8 47.3989 8 96H24ZM96 24C135.765 24 168 56.2355 168 96H184C184 47.3989 144.601 8 96 8V24Z" fill="black" mask="url(#path-1-inside-1_1_2)"/>
<path d="M110 133H145" stroke="black" stroke-width="10" stroke-linecap="round" stroke-linejoin="round"/>
<path d="M110 97H154" stroke="black" stroke-width="10" stroke-linecap="round" stroke-linejoin="round"/>
<path d="M110 115H154" stroke="black" stroke-width="10" stroke-linecap="round" stroke-linejoin="round"/>
<path d="M111 78H158" stroke="black" stroke-width="12" stroke-linecap="round" stroke-linejoin="round"/>
<path d="M85 100.5L76.7859 100.207C73.5575 100.091 71 97.4408 71 94.2105V88.5C71 85.1863 73.6863 82.5 77 82.5H84C84.5523 82.5 85 82.9477 85 83.5V100.5ZM85 100.5V112.5" stroke="black" stroke-width="10" stroke-linecap="round" stroke-linejoin="round"/>
<path d="M43 82V90.5C43 93.8137 45.6863 96.5 49 96.5H54.5C57.8137 96.5 60.5 93.8137 60.5 90.5V82M43 112.5V91" stroke="black" stroke-width="10" stroke-linecap="round" stroke-linejoin="round"/>
<path d="M67.0843 63.7993L55.5964 72.0706C55.2416 72.3261 54.7619 72.3214 54.4121 72.0591L43.4084 63.8063C43.1519 63.6139 43.0032 63.3015 43.0094 62.9809C43.4929 38.3204 48.643 30.1621 66.3439 27.1845C66.9474 27.083 67.5 27.5508 67.5 28.1627V62.9878C67.5 63.3094 67.3453 63.6114 67.0843 63.7993Z" stroke="black" stroke-width="6" stroke-linecap="round" stroke-linejoin="round"/>
</svg>

<svg width="192" height="192" viewBox="0 0 192 192" fill="none" xmlns="http://www.w3.org/2000/svg"><mask id="a" fill="#fff"><path d="M176 96c0 44.183-35.817 80-80 80s-80-35.817-80-80 35.817-80 80-80 80 35.817 80 80Z"/></mask><path d="M92 16v160h8V16h-8Zm76 80c0 39.765-32.235 72-72 72v16c48.601 0 88-39.399 88-88h-16Zm-72 72c-39.764 0-72-32.235-72-72H8c0 48.601 39.399 88 88 88v-16ZM24 96c0-39.764 32.236-72 72-72V8C47.399 8 8 47.399 8 96h16Zm72-72c39.765 0 72 32.236 72 72h16c0-48.601-39.399-88-88-88v16Z" fill="#000" mask="url(#a)"/><path d="M110 133h35M110 97h44M110 115h44" stroke="#000" stroke-width="10" stroke-linecap="round" stroke-linejoin="round"/><path d="M111 78h47" stroke="#000" stroke-width="12" stroke-linecap="round" stroke-linejoin="round"/><path d="m85 100.5-8.214-.293A6 6 0 0 1 71 94.211V88.5a6 6 0 0 1 6-6h7a1 1 0 0 1 1 1v17Zm0 0v12M43 82v8.5a6 6 0 0 0 6 6h5.5a6 6 0 0 0 6-6V82M43 112.5V91" stroke="#000" stroke-width="10" stroke-linecap="round" stroke-linejoin="round"/><path d="m67.084 63.8-11.488 8.27a1 1 0 0 1-1.184-.01l-11.004-8.254a1.013 1.013 0 0 1-.399-.825c.484-24.66 5.634-32.819 23.335-35.797a.993.993 0 0 1 1.156.979v34.825a1 1 0 0 1-.416.811Z" stroke="#000" stroke-width="6" stroke-linecap="round" stroke-linejoin="round"/></svg>
